X: 11364
T: MISS CATHERINE CAMPBELL OF ARDMORE'S STRATHSPEY
%R: strathspey
B: W. Hamilton "Universal Tune-Book" Vol. 1 Glasgow 1844 p.136 #4
S: http://imslp.org/wiki/Hamilton's_Universal_Tune-Book_(Various)
Z: 2016 John Chambers <jc:trillian.mit.edu>
M: C|
L: 1/8
K: Bm	% and D major
% - - - - - - - - - - - - - - - - - - - - - - - - -
|:\
B>Bd>e f>Bd2 | B>cd>e f>ec>a |\
B>Bd>e f>Bd2 | A>Ac>A eAce :|\
d>efd gef2 | d>ef>d f>ef>a |
d>ef>d gef2 | e>cA>B c>de>f |\
d>ef>d gef2 | d>efd f>ef>a |\
d>af>a d>ef>a | efdb cAce |]
% - - - - - - - - - - - - - - - - - - - - - - - - -

% (Continued from previous page)

%%sep 1 1 500
%%sep 1 1 500

